X: 10
T:Staines Morris
M:4/4
L:1/4
S:Wright 1713
N:KS as printed. you might prefer Gdorian throughout 2nd strain
K:G
dgf/g/a|gf/e/de|=f>edc/_B/|ABG2||
G/A/B/c/dc/B/|ABG2|G/A/B/c/dc/B/|ABG2|BBFF|G/A/B/c/d>e|f>edc|A/G/A/B/G2|
|
